X: 11707
T: Eist Do Bheal, A Pheadar
R: jig
M: 6/8
K: Fmajor
GEC DEF|GAB AGF|GEC DEF|GAB c3|
GEC DEF|GAB AGF|dcB GFE|CB,A, C3:|
G2d dcB|cBA BAG|G2d dcB|cBA G3|
G2d dcB|cBA BAG|ABA cBA|ABA G3|
G2d dcB|cBA BAG|G2d dcB|cBA G3|
G2d _edc|dcB cBA|BAG AGF|GF=E FED||

